!!!OTL: DER MOND IST AUFGEGANGEN
!!!ARE: Europa, Mitteleuropa, Deutschland
!!!SCT: B0237
!!!YEM: Copyright 1995, estate of Helmut Schaffrath.
**kern
*ICvox
*Ivox
*M4/4
*k[f#]
*G:
{4g
=1
4a
4g
4cc
4b
=2
2a
4g}
{4b
=3
4b
4b
4ee
4dd
=4
2cc
4b}
{4b
=5
4b
4b
4cc
4b
=6
2a
4r}
{4g
=7
4a
4g
4cc
4b
=8
2a
4g}
{4b
=9
4b
4b
4ee
4dd
=10
2cc
4b}
{4b
=11
4b
4b
4cc
4b
=12
4a
4a
4g}
==
!!!AGN: Tageszeiten - Lied, Abend
!!!ONB: ESAC (Essen Associative Code) Database: BOEHME
!!!AMT: simple quadruple
!!!AIN: vox
!!!EED: Helmut Schaffrath
!!!EEV: 1.0
*-
